X:984
T:Up Spinc\'in
R:reel
C:Colm O'Donnell
S:Jennikel Andersson
Z:id:hn-reel-984
M:C|
L:1/8
K:G
GEDE ~G3B | AGED EAAB | GEDE ~G3B | dBAd BGGA |
GEDE GFGB | AGED EA~A2 | GBdG edBe | dBAB ~G3A :|
|: B2dg edBe | dGBG AGEG | ~B3d edBd | eg~g2 abgd |
B2gd edBe | dGBG AGEA | GEDE ~G3B | dBAd BGGA :|

